icons/tokens/0x8064d9Ae6cDf087b1bcd5BDf3531bD5d8C537a68/logo.svg

<svg width="32" height="32" viewBox="0 0 32 32" fill="none" xmlns="http://www.w3.org/2000/svg">
<path fill-rule="evenodd" clip-rule="evenodd" d="M32 16C32 7.17152 24.8285 0 16 0C7.17152 0 0 7.17152 0 16C0 24.8285 7.17152 32 16 32C24.8285 32 32 24.8285 32 16Z" fill="#F7931A"/>
<path fill-rule="evenodd" clip-rule="evenodd" d="M16 0C24.8285 0 32 7.17152 32 16C32 24.8285 24.8285 32 16 32C7.17152 32 0 24.8285 0 16C0 7.17152 7.17152 0 16 0ZM16 1.1808C24.177 1.1808 30.8192 7.82304 30.8192 16C30.8192 24.177 24.177 30.8192 16 30.8192C7.82304 30.8192 1.1808 24.177 1.1808 16C1.1808 7.82304 7.82304 1.1808 16 1.1808Z" fill="#137AEA"/>
<path fill-rule="evenodd" clip-rule="evenodd" d="M28.8445 16C28.8445 8.91264 23.0874 3.15552 16 3.15552C8.91264 3.15552 3.15552 8.91264 3.15552 16C3.15552 23.0874 8.91264 28.8445 16 28.8445C23.0874 28.8445 28.8445 23.0874 28.8445 16Z" stroke="white" stroke-opacity="0.65" stroke-width="0.5"/>
<path fill-rule="evenodd" clip-rule="evenodd" d="M26.3245 16C26.3245 10.303 21.697 5.67552 16 5.67552C10.3031 5.67552 5.67554 10.303 5.67554 16C5.67554 21.697 10.3031 26.3245 16 26.3245C21.697 26.3245 26.3245 21.697 26.3245 16Z" stroke="white" stroke-opacity="0.4" stroke-width="0.5"/>
<path fill-rule="evenodd" clip-rule="evenodd" d="M24.0451 16C24.0451 11.561 20.4391 7.95488 16 7.95488C11.561 7.95488 7.9549 11.561 7.9549 16C7.9549 20.439 11.561 24.0451 16 24.0451C20.4391 24.0451 24.0451 20.439 24.0451 16Z" stroke="white" stroke-opacity="0.25" stroke-width="0.5"/>
<path fill-rule="evenodd" clip-rule="evenodd" d="M22.7799 13.8099C23.0855 11.7626 21.5283 10.6637 19.3984 9.92736L20.0893 7.1568L18.4023 6.73632L17.7287 9.43456C17.2858 9.32448 16.8304 9.21952 16.3773 9.1168L17.0535 6.40128L15.3687 5.98048L14.6755 8.75168L14.5042 8.71189C14.1971 8.64058 13.8947 8.57037 13.5991 8.49856L13.6016 8.48832L11.2736 7.90784L10.8256 9.71008C10.8883 9.72448 12.0771 9.99808 12.0496 10.0154C12.7325 10.1856 12.8583 10.6387 12.8378 10.9962L10.9431 18.5907C10.8602 18.7981 10.6477 19.1091 10.1696 18.991C10.1875 19.016 9.00546 18.7021 8.94306 18.6854L8.10498 20.6154C8.68861 20.7612 9.27224 20.9068 9.8557 21.0524L9.86282 21.0542L10.3021 21.1638C10.5311 21.2211 10.7576 21.2803 10.9817 21.3388C11.1571 21.3846 11.3311 21.4301 11.5037 21.4739L10.8058 24.2774L12.4925 24.6976L13.1831 21.9245C13.6439 22.0496 14.0899 22.1648 14.5274 22.2723L13.8394 25.0336L15.5264 25.4538L16.2247 22.6557C19.1005 23.201 21.2656 22.9811 22.177 20.3776C22.9101 18.2826 22.1392 17.0739 20.625 16.2851C21.7283 16.0326 22.5568 15.3066 22.7799 13.8099ZM18.9251 19.2141C18.4457 21.1371 15.4405 20.3439 14.0628 19.9803C13.938 19.9474 13.8265 19.918 13.7315 19.8944L14.6576 16.1802C14.7734 16.2091 14.915 16.2409 15.0755 16.2768C16.5006 16.5964 19.4135 17.2497 18.9251 19.2141ZM15.3585 14.5504C16.5052 14.857 19.0101 15.5266 19.4461 13.7798C19.8911 11.9911 17.4584 11.4522 16.2695 11.1889C16.1359 11.1593 16.018 11.1331 15.9216 11.1091L15.0829 14.4781C15.1619 14.4978 15.2546 14.5226 15.3585 14.5504Z" fill="white"/>
</svg>

<svg fill="none" viewBox="0 0 32 32"><path fill="#F7931A" fill-rule="evenodd" d="M32 16c0-8.828-7.172-16-16-16S0 7.172 0 16s7.172 16 16 16 16-7.172 16-16z" clip-rule="evenodd"/><path fill="#137AEA" fill-rule="evenodd" d="M16 0c8.828 0 16 7.172 16 16s-7.172 16-16 16S0 24.828 0 16 7.172 0 16 0zm0 1.18c8.177 0 14.82 6.643 14.82 14.82S24.176 30.82 16 30.82 1.18 24.176 1.18 16 7.824 1.18 16 1.18z" clip-rule="evenodd"/><path stroke="#fff" stroke-opacity=".65" stroke-width=".5" d="M28.845 16c0-7.087-5.758-12.844-12.845-12.844C8.913 3.156 3.156 8.913 3.156 16S8.913 28.845 16 28.845 28.845 23.087 28.845 16z" clip-rule="evenodd"/><path stroke="#fff" stroke-opacity=".4" stroke-width=".5" d="M26.325 16c0-5.697-4.628-10.324-10.325-10.324-5.697 0-10.324 4.627-10.324 10.324S10.303 26.325 16 26.325 26.325 21.697 26.325 16z" clip-rule="evenodd"/><path stroke="#fff" stroke-opacity=".25" stroke-width=".5" d="M24.045 16c0-4.439-3.606-8.045-8.045-8.045S7.955 11.56 7.955 16 11.56 24.045 16 24.045A8.05 8.05 0 0024.045 16z" clip-rule="evenodd"/><path fill="#fff" fill-rule="evenodd" d="M22.78 13.81c.305-2.047-1.252-3.146-3.382-3.883l.691-2.77-1.687-.42-.673 2.698c-.443-.11-.899-.215-1.352-.318l.677-2.716-1.685-.42-.694 2.77-.17-.04c-.308-.07-.61-.14-.906-.212l.003-.01-2.328-.581-.448 1.802c.062.014 1.251.288 1.224.305.682.17.808.624.788.981l-1.895 7.595c-.083.207-.295.518-.773.4.018.025-1.165-.289-1.227-.306l-.838 1.93 1.75.437.008.002.44.11c.228.057.455.116.679.175l.522.135-.698 2.803 1.687.42.69-2.773c.46.126.907.24 1.344.348l-.688 2.762 1.687.42.699-2.798c2.875.545 5.04.325 5.952-2.278.733-2.095-.038-3.304-1.552-4.093 1.103-.252 1.932-.978 2.155-2.475zm-3.855 5.404c-.48 1.923-3.485 1.13-4.862.766l-.332-.086.927-3.714c.115.03.257.06.418.097 1.425.32 4.337.973 3.85 2.937zm-3.567-4.664c1.147.307 3.652.977 4.088-.77.445-1.789-1.988-2.328-3.177-2.591-.133-.03-.251-.056-.347-.08l-.84 3.37c.08.019.173.044.276.071z" clip-rule="evenodd"/></svg>
